X: 161
T: the Round ear'd cap
%%VWML:Wrights-3753-p81-0
F: http://www.vwml.org/record/Wrights/3753/p81
%R: jig
B: Daniel Wright "Wright's Compleat Collection of Celebrated Country Dances" 1740 p.81
S: http://library.efdss.org/cgi-bin/dancebooks.cgi
Z: 2014 John Chambers <jc:trillian.mit.edu>
N: Repeats modified to match the "Each strain twice" instruction.
M: 6/8
L: 1/8
K: C
%-------------------------
G |\
cdc cdc | c3- c2c | efe efe | e3- e2e |\
gag gag | g3- g2f | f3 e3 | d3- d2 :|
|: g |\
gfe efg | A3- A2f | fed def | G3- G2 e |\
edc cde | F3- F2f | e3 d3 | c3- c2 :|
%-------------------------
%%center Each strain twice.
%%begintext align
%% First and 2d Cu. clap hands and back to back
%% and turn .| then all four lead up forward and
%% back, and sett and turn single :| then all four
%% Jigg it and take both right and left hands go
%% round in your places .| then 1st Man turns the
%% 3d Wo. and the 1st Wo. turns the 2d Man, then
%% both half figure with the Cu. they turn with,
%% then right and left quite round :|
%%endtext
%-------------------------
%%sep 2 4 300
T: a Trip to Georgia
T: Longways &c.
%R:
B: Daniel Wright "Wright's Compleat Collection of Celebrated Country Dances" 1740 p.81
S: http://library.efdss.org/cgi-bin/dancebooks.cgi
Z: 2014 John Chambers <jc:trillian.mit.edu> N: Repeat added to match the instructions. M: 3/4
L: 1/8
K: C %-------------------------
C2 |\
E2G2G2 | G2c2B2 | A2F2F2 | F4c2 |\
F2c2F2 | E2c2E2 | C2_B2A2 | G4c2 |\
A2F2F2 | A2c2c2 | E2C2EF | G4c2 |
F2d2F2 | E2C2c2 | E2C2C2 | C4 |: e2 |\
f2a2f2 | e2c2c2 | F2d2e2 | f4g2 |\
c2a2c2 | B2G2g2 | B2G2B2 | c4 :| %-------------------------
%%center The 1st strain but once the last twice. %%begintext align
%% The 1st and 2d Cu. foots it, then clap hands, foot %% it again, clap as before, the 1st Cu. cast of .| the %% 1st Cu. cast up, again then cast down to the
%% Bottom and turn .| then cast up at top and
%% cast in the 2d Cu. place and turn :|
%%endtext
%-------------------------
%%sep 2 4 300
